!!!SOCIAL_FUNCTION:	songs of the lame dance
!!!PDT:	1922
!!!OTL: No_39_Lame_Dance_Song_(a).krn
!!!REG: Southwest
!!!LANG: Non-Tone
!!!LING_GROUP: Uto-Aztecan
**kern	**kern
*staff2	*staff1
=1-	=1-
*clefF4	*clefF4
*k[f#c#g#d#]	*k[f#c#g#d#]
*M2/4	*M2/4
4GG#/	4e\
4GG#/	16f#\LK
.	8.e\J
=2	=2
4GG#/	4e;\
4GG#/	4e\
=3	=3
4GG#/	8.B\L
.	16c#\Jk
4GG#/	16c#\LL
.	16B\
.	16A\
.	16G#\JJ
=4	=4
2r	4F#\
.	16F#\LK
.	8.E\J
=5||	=5||
*M3/4	*M3/4
2.r	2.E\
=6||	=6||
*M2/4	*M2/4
2r	16c#\LK
.	8.B\J
.	16c#\LK
.	8.B\J
=7||	=7||
*M3/4	*M3/4
2.r	2B\
.	12c#\L
.	12B\
.	12B\J
=8	=8
2.r	8.F#\L
.	16G#\Jk
.	12G#\L
.	12F#\
.	[12E\J
.	4E\]
=9	=9
2.r	16G#\LK
.	8.E\J
.	12G#\L
.	12E\
.	[12E\J
.	4E\]
=10	=10
2.r	16G#\LK
.	8.E\J
.	8.C#/L
.	16E/Jk
.	12E/L
.	12C#/
.	12C#/J
=11||	=11||
*M2/4	*M2/4
2r	4BB/
.	8c#\L
.	8c#\J
=12	=12
2r	16c#\LK
.	8B\
.	16c#\Jk
.	16c#\LL
.	16B\
.	16A\
.	16G#\JJ
=13	=13
2r	4F#\
.	16F#\LK
.	8.E\J
=14	=14
2r	2E\
=15||	=15||
*M3/4	*M3/4
2.r	16G#\LK
.	8.E\J
.	12G#\L
.	12E\
.	12E\J
.	4E\
=16	=16
2.r	8G#\L
.	8E\J
.	8.C#/L
.	16E/Jk
.	12E/L
.	12C#/
.	12C#/J
=17||	=17||
*M2/4	*M2/4
2r	4BB/
.	8BB/L
.	8BB/J
=18	=18
2r	4BB/
.	4r
==	==
*-	*-
